public/svgs/light/booth-curtain.svg

<svg xmlns="http://www.w3.org/2000/svg" viewBox="0 0 512 512"><!-- Font Awesome Pro 6.0.0-alpha2 by @fontawesome - https://fontawesome.com License - https://fontawesome.com/license (Commercial License) --><path d="M0 32V496C0 504.8 7.2 512 16 512H16C24.8 512 32 504.8 32 496V32H96L96 381.523C96 416.815 123.491 447.31 158.777 447.988C178.529 448.368 196.002 439.533 208 425.875C219.75 439.25 236.75 448 256 448S292.25 439.25 304 425.875C315.75 439.25 332.75 448 352 448S388.25 439.25 400 425.875C411.75 439.25 428.75 448 448 448C459.75 448 470.5 444.625 480 439.125V496C480 504.8 487.2 512 496 512L496 512C504.8 512 512 504.8 512 496V32C512 14.327 497.673 0 480 0H32C14.327 0 0 14.327 0 32ZM416 32H480V384C480 401.75 465.75 416 448 416C430.25 416 416 401.75 416 384V32ZM320 32H384V384C384 401.75 369.75 416 352 416S320 401.75 320 384V32ZM224 32H288V384C288 401.75 273.75 416 256 416S224 401.75 224 384V32ZM128 32H192V384C192 401.75 177.75 416 160 416S128 401.75 128 384V32Z"/></svg>

<svg xmlns="http://www.w3.org/2000/svg" viewBox="0 0 512 512"><!--! Font Awesome Pro 6.5.1 by @fontawesome - https://fontawesome.com License - https://fontawesome.com/license (Commercial License) Copyright 2023 Fonticons, Inc. --><path d="M0 32V496c0 8.8 7.2 16 16 16s16-7.2 16-16V32l32 0V0H32C14.3 0 0 14.3 0 32zm288 0V384c0 17.7-14.3 32-32 32s-32-14.3-32-32V32h64zM256 448c19.1 0 36.3-8.4 48-21.7c11.7 13.3 28.9 21.7 48 21.7s36.3-8.4 48-21.7c11.7 13.3 28.9 21.7 48 21.7c11.7 0 22.6-3.1 32-8.6V496c0 8.8 7.2 16 16 16s16-7.2 16-16V384 48 32c0-17.7-14.3-32-32-32H208 128C110.3 0 96 14.3 96 32V384c0 35.3 28.7 64 64 64c19.1 0 36.3-8.4 48-21.7c11.7 13.3 28.9 21.7 48 21.7zM480 48V384c0 17.7-14.3 32-32 32s-32-14.3-32-32V32h64V48zM384 32V384c0 17.7-14.3 32-32 32s-32-14.3-32-32V32h64zM192 384c0 17.7-14.3 32-32 32s-32-14.3-32-32V32h64V384z"/></svg>
